src/assets/img/globalping/location-icon.svg

<svg width="16" height="16" viewBox="0 0 16 16" fill="none" xmlns="http://www.w3.org/2000/svg">
<path d="M7.99992 14.6666C7.84436 14.6666 7.71103 14.6221 7.59992 14.5333C7.48881 14.4444 7.40547 14.3277 7.34992 14.1833C7.13881 13.561 6.87214 12.9777 6.54992 12.4333C6.23881 11.8888 5.79992 11.2499 5.23325 10.5166C4.66659 9.78325 4.20547 9.08325 3.84992 8.41658C3.50547 7.74992 3.33325 6.94436 3.33325 5.99992C3.33325 4.69992 3.78325 3.59992 4.68325 2.69992C5.59436 1.78881 6.69992 1.33325 7.99992 1.33325C9.29992 1.33325 10.3999 1.78881 11.2999 2.69992C12.211 3.59992 12.6666 4.69992 12.6666 5.99992C12.6666 7.01103 12.4721 7.85547 12.0833 8.53325C11.7055 9.19992 11.2666 9.86103 10.7666 10.5166C10.1666 11.3166 9.71103 11.9833 9.39992 12.5166C9.09992 13.0388 8.84992 13.5944 8.64992 14.1833C8.59436 14.3388 8.50548 14.461 8.38325 14.5499C8.27214 14.6277 8.14436 14.6666 7.99992 14.6666ZM7.99992 12.2833C8.18881 11.9055 8.39992 11.5333 8.63325 11.1666C8.8777 10.7999 9.23325 10.311 9.69992 9.69992C10.1777 9.0777 10.5666 8.50547 10.8666 7.98325C11.1777 7.44992 11.3333 6.78881 11.3333 5.99992C11.3333 5.0777 11.0055 4.29436 10.3499 3.64992C9.70547 2.99436 8.92214 2.66658 7.99992 2.66658C7.0777 2.66658 6.28881 2.99436 5.63325 3.64992C4.98881 4.29436 4.66659 5.0777 4.66659 5.99992C4.66659 6.78881 4.81659 7.44992 5.11659 7.98325C5.4277 8.50547 5.82214 9.0777 6.29992 9.69992C6.76659 10.311 7.11659 10.7999 7.34992 11.1666C7.59436 11.5333 7.81103 11.9055 7.99992 12.2833ZM7.99992 7.66658C8.46659 7.66658 8.86103 7.50547 9.18325 7.18325C9.50547 6.86103 9.66659 6.46658 9.66659 5.99992C9.66659 5.53325 9.50547 5.13881 9.18325 4.81658C8.86103 4.49436 8.46659 4.33325 7.99992 4.33325C7.53325 4.33325 7.13881 4.49436 6.81659 4.81658C6.49436 5.13881 6.33325 5.53325 6.33325 5.99992C6.33325 6.46658 6.49436 6.86103 6.81659 7.18325C7.13881 7.50547 7.53325 7.66658 7.99992 7.66658Z" fill="#1D1B20"/>
</svg>

<svg xmlns="http://www.w3.org/2000/svg" width="16" height="16" fill="none">
  <path fill="#1D1B20" d="M8 14.667a.62.62 0 0 1-.4-.134.8.8 0 0 1-.25-.35 9.3 9.3 0 0 0-.8-1.75q-.466-.816-1.317-1.916a15 15 0 0 1-1.383-2.1q-.517-1-.517-2.417 0-1.95 1.35-3.3Q6.05 1.333 8 1.333T11.3 2.7q1.367 1.35 1.367 3.3 0 1.516-.584 2.533a17.5 17.5 0 0 1-1.316 1.984q-.9 1.2-1.367 2-.45.783-.75 1.666a.75.75 0 0 1-.267.367.65.65 0 0 1-.383.117m0-2.384q.283-.566.633-1.116Q9 10.617 9.7 9.7q.717-.933 1.167-1.717.466-.8.466-1.983 0-1.384-.983-2.35A3.17 3.17 0 0 0 8 2.667q-1.383 0-2.367.983-.966.966-.966 2.35 0 1.184.45 1.983A18 18 0 0 0 6.3 9.7q.7.917 1.05 1.467.366.55.65 1.116m0-4.616a1.6 1.6 0 0 0 1.183-.484A1.6 1.6 0 0 0 9.667 6a1.6 1.6 0 0 0-.484-1.183A1.6 1.6 0 0 0 8 4.333a1.6 1.6 0 0 0-1.183.484A1.6 1.6 0 0 0 6.333 6q0 .7.484 1.183A1.6 1.6 0 0 0 8 7.667"/>
</svg>
